X: 1
T: I sommarens soliga dagar
C: anon.
O: Sweden
R: March
Z: Transcribed by Frank Nordberg - http://www.musicaviva.com
F: http://abc.musicaviva.com/tunes/sweden/i-sommarens-soliga.abc
M: C
L: 1/8
K: D
A2 | "D"F2 A>G F2 d>c | "G"B4 "Em"G2 G2 | "A7"E2 G>F E2 c>B | "D"A4 F2 A2 |
w:I som-ma-rens so-li-ga da-gar vi g\aa ge-nom sko-gar och ha-gar, p\aa
"D"d2 d>d f2 d>d | "G"G4 B2 g2 | "D/A"f2 d2 "A7"e2 c2 | "D"d>d d>d d> |]| A A>G |
w:f\"ar-dens be-sv\"ar in-gen kla-gar, vi sjun-ga var vi g\aa. Hal-l\aa, hal-l\aa! Du som \"ar
"D"F>A A>G F>d d>c | "G"B>B B>A "Em"G>G G>F | "A7"E>G G>F E>c c>B | "D"A>A A>G F2 A2 |
w:ung, kom med och sjung och sitt ej hem-ma sl\"o och tung! V\aar s\aan-gar-tropp han g\aan-gar opp p\aa kul-lens all-ra h\"ogs-ta topp. I
"D"d2 d>d f2 d>d | "G"G4 B2 g2 | "D/A"f2 d2 "A7"e2 c2 | "D"d>d d>d d2 |]
w:som-ma-rens so-li-ga da-gar vi sjun-ga var vi g\aa. Hal-l\aa, hal-l\aa!
